X:498
T: OLL MANN WULL RIEDEN
N: E1755
O: Europa, Mitteleuropa, Deutschland, Pommern
R: Scherz - Lied
M: 3/8
L: 1/16
K: F
 | F2F2G2 | E2D2
C2 | F2FEFA | G4z2 |
B2B2BB | A2G2F2 |
G2G2A2 | F2EDC2 |
F2F2A2 | G2F2z2

@@@ Tune index: 5182
